humanity-icon-theme/Humanity/apps/16/evolution-calendar.svg

<?xml version="1.0" encoding="UTF-8" standalone="no"?>
<!-- Created with Inkscape (http://www.inkscape.org/) -->
<svg
   xmlns:svg="http://www.w3.org/2000/svg"
   xmlns="http://www.w3.org/2000/svg"
   xmlns:xlink="http://www.w3.org/1999/xlink"
   version="1.0"
   width="16"
   height="16"
   id="svg3442">
  <defs
     id="defs3444">
    <linearGradient
       id="linearGradient3104">
      <stop
         id="stop3106"
         style="stop-color:#787878;stop-opacity:1"
         offset="0" />
      <stop
         id="stop3108"
         style="stop-color:#aaaaaa;stop-opacity:1"
         offset="1" />
    </linearGradient>
    <linearGradient
       x1="24"
       y1="44"
       x2="24"
       y2="3.8904724"
       id="linearGradient2650"
       xlink:href="#linearGradient3104"
       gradientUnits="userSpaceOnUse"
       gradientTransform="matrix(0.3846154,0,0,0.3333333,-1.2307692,1)" />
    <linearGradient
       id="linearGradient3600-1">
      <stop
         id="stop3602-9"
         style="stop-color:#f4f4f4;stop-opacity:1"
         offset="0" />
      <stop
         id="stop3604-6"
         style="stop-color:#dbdbdb;stop-opacity:1"
         offset="1" />
    </linearGradient>
    <linearGradient
       x1="19.360001"
       y1="16.137854"
       x2="19.360001"
       y2="44.98436"
       id="linearGradient2648"
       xlink:href="#linearGradient3600-1"
       gradientUnits="userSpaceOnUse"
       gradientTransform="matrix(0.3846154,0,0,0.3333333,-1.2307692,0.6775205)" />
    <linearGradient
       id="linearGradient2490">
      <stop
         id="stop2492"
         style="stop-color:#791235;stop-opacity:1"
         offset="0" />
      <stop
         id="stop2494"
         style="stop-color:#dd3b27;stop-opacity:1"
         offset="1" />
    </linearGradient>
    <linearGradient
       x1="24"
       y1="44"
       x2="24"
       y2="3.8990016"
       id="linearGradient2645"
       xlink:href="#linearGradient2490"
       gradientUnits="userSpaceOnUse"
       gradientTransform="matrix(0.3846154,0,0,0.398754,-1.2307691,-1.294915)" />
    <linearGradient
       id="linearGradient3357">
      <stop
         id="stop3359"
         style="stop-color:#f89b7e;stop-opacity:1"
         offset="0" />
      <stop
         id="stop3361"
         style="stop-color:#e35d4f;stop-opacity:1"
         offset="0.39678687" />
      <stop
         id="stop3363"
         style="stop-color:#c6262e;stop-opacity:1"
         offset="1" />
    </linearGradient>
    <radialGradient
       cx="12.063192"
       cy="11.394437"
       r="19.99999"
       fx="12.063192"
       fy="11.394437"
       id="radialGradient2643"
       xlink:href="#linearGradient3357"
       gradientUnits="userSpaceOnUse"
       gradientTransform="matrix(0,0.4432376,-0.6139646,0,12.251014,-1.309243)" />
    <linearGradient
       id="linearGradient3308-4-6">
      <stop
         id="stop3310-1-4"
         style="stop-color:#ffffff;stop-opacity:1"
         offset="0" />
      <stop
         id="stop3312-5-3"
         style="stop-color:#ffffff;stop-opacity:0"
         offset="1" />
    </linearGradient>
    <linearGradient
       x1="23.99999"
       y1="4.999989"
       x2="23.99999"
       y2="43"
       id="linearGradient2640"
       xlink:href="#linearGradient3308-4-6"
       gradientUnits="userSpaceOnUse"
       gradientTransform="matrix(0.3513515,0,0,0.3513512,-0.4324331,-0.4324291)" />
  </defs>
  <g
     id="layer1">
    <rect
       width="15"
       height="13"
       rx="0.8888889"
       ry="0.8888889"
       x="0.5"
       y="2.5"
       id="rect5505"
       style="fill:url(#linearGradient2648);fill-opacity:1;stroke:url(#linearGradient2650);stroke-width:1;stroke-linecap:round;stroke-linejoin:round;stroke-miterlimit:4;stroke-dasharray:none;stroke-dashoffset:0;stroke-opacity:1" />
    <path
       d="M 1.3533652,0.5000001 C 0.87773174,0.5000001 0.5,0.8916174 0.5,1.3847352 L 0.5,4.5 L 15.5,4.5 L 15.5,1.3847352 C 15.5,0.8916173 15.122268,0.5000001 14.646634,0.5000001 L 1.3533652,0.5000001 L 1.3533652,0.5000001 z"
       id="rect2424"
       style="fill:url(#radialGradient2643);fill-opacity:1;stroke:url(#linearGradient2645);stroke-width:1;stroke-linecap:butt;stroke-linejoin:miter;stroke-miterlimit:4;stroke-dasharray:none;stroke-dashoffset:0;stroke-opacity:1" />
    <rect
       width="13.000001"
       height="13"
       x="1.5000001"
       y="1.499999"
       id="rect6741"
       style="opacity:0.4;fill:none;stroke:url(#linearGradient2640);stroke-width:1;stroke-linecap:round;stroke-linejoin:round;stroke-miterlimit:4;stroke-dasharray:none;stroke-dashoffset:0;stroke-opacity:1" />
    <path
       d="M 4.6715317,11.789208 C 5.5268247,11.789208 6.3821178,11.789208 7.2374108,11.789208 C 7.2374108,12.154093 7.2374108,12.518976 7.2374108,12.88386 C 5.8249406,12.88386 4.4124703,12.88386 3,12.88386 C 3,12.518976 3,12.154093 3,11.789208 C 3.752346,11.125056 4.5182612,10.475391 5.2617408,9.8017703 C 5.6679326,9.4467091 5.8668726,8.7706753 5.4746493,8.3336733 C 5.0246899,7.8586192 4.290042,8.0094495 3.7512032,8.2328937 C 3.5193205,8.2535101 3.088509,8.6916999 3.0156218,8.5209698 C 3.0156218,8.128929 3.0156218,7.7368883 3.0156218,7.3448476 C 4.0057779,7.0374203 5.1096488,6.839478 6.117033,7.1827572 C 6.7511026,7.3961809 7.2159972,8.0127864 7.1977877,8.6828106 C 7.2410325,9.3555133 6.7929894,9.9158059 6.3181827,10.343083 C 5.7810584,10.837808 5.2200759,11.30694 4.6715317,11.789208 z M 10.71326,10.300019 C 10.259223,10.258226 9.8332194,10.619804 9.8419779,11.078641 C 9.7820853,11.510204 10.033036,12.012314 10.514569,12.045949 C 10.937663,12.127175 11.466961,11.942626 11.545056,11.4733 C 11.655757,11.03346 11.511676,10.435296 10.999209,10.332113 C 10.905788,10.308968 10.809364,10.300047 10.71326,10.300019 z M 9.6158286,9.8087793 C 9.0609928,9.6743173 8.5612925,9.2138249 8.5499463,8.6216597 C 8.4726488,8.0107186 8.8540492,7.3961012 9.4469322,7.2022894 C 10.178092,6.9450009 10.993799,6.9487714 11.743288,7.1256285 C 12.347066,7.2596228 12.879419,7.7706612 12.870821,8.4109123 C 12.931232,8.9709141 12.579493,9.5229492 12.048188,9.7188495 C 11.842382,9.7867309 11.734886,9.8200593 12.011285,9.8769092 C 12.602569,10.062096 13.033537,10.639698 12.997946,11.259289 C 13.027118,11.893636 12.668233,12.541174 12.05283,12.770233 C 11.314938,13.056985 10.48176,13.050543 9.7154163,12.88676 C 9.0874708,12.756235 8.5197334,12.269429 8.4445144,11.614981 C 8.3269169,11.019171 8.5245611,10.323028 9.0944505,10.02249 C 9.2567076,9.9268339 9.4341894,9.8585426 9.6158286,9.8087793 z M 9.9673189,8.6522399 C 9.9053077,9.1808045 10.492329,9.4892461 10.954357,9.3417178 C 11.617348,9.2166109 11.618982,8.0909911 10.954357,7.966636 C 10.481143,7.8336471 9.9170533,8.1065891 9.9673189,8.6522399 z"
       id="text3437"
       style="font-size:8px;font-style:normal;font-weight:bold;opacity:0.6;fill:#000000;fill-opacity:1;stroke:none;stroke-width:1px;stroke-linecap:butt;stroke-linejoin:miter;stroke-opacity:1;font-family:Bitstream Vera Sans;-inkscape-font-specification:Bitstream Vera Sans Bold" />
  </g>
</svg>

<?xml version="1.0" encoding="UTF-8" standalone="no"?>
<!-- Created with Inkscape (http://www.inkscape.org/) -->
<svg id="svg3442" xmlns="http://www.w3.org/2000/svg" height="16" width="16" version="1.0" xmlns:xlink="http://www.w3.org/1999/xlink">
 <defs id="defs3444">
  <linearGradient id="linearGradient2650" y2="3.8905" gradientUnits="userSpaceOnUse" x2="24" gradientTransform="matrix(.38462 0 0 .33333 -1.2308 1)" y1="44" x1="24">
   <stop id="stop3106" style="stop-color:#787878" offset="0"/>
   <stop id="stop3108" style="stop-color:#aaa" offset="1"/>
  </linearGradient>
  <linearGradient id="linearGradient2648" y2="44.984" gradientUnits="userSpaceOnUse" x2="19.36" gradientTransform="matrix(.38462 0 0 .33333 -1.2308 .67752)" y1="16.138" x1="19.36">
   <stop id="stop3602-9" style="stop-color:#f4f4f4" offset="0"/>
   <stop id="stop3604-6" style="stop-color:#dbdbdb" offset="1"/>
  </linearGradient>
  <linearGradient id="linearGradient2645" y2="3.899" gradientUnits="userSpaceOnUse" x2="24" gradientTransform="matrix(.38462 0 0 .39875 -1.2308 -1.2949)" y1="44" x1="24">
   <stop id="stop2492" style="stop-color:#791235" offset="0"/>
   <stop id="stop2494" style="stop-color:#dd3b27" offset="1"/>
  </linearGradient>
  <radialGradient id="radialGradient2643" gradientUnits="userSpaceOnUse" cy="11.394" cx="12.063" gradientTransform="matrix(0 .44324 -.61396 0 12.251 -1.3092)" r="20">
   <stop id="stop3359" style="stop-color:#f89b7e" offset="0"/>
   <stop id="stop3361" style="stop-color:#e35d4f" offset=".39679"/>
   <stop id="stop3363" style="stop-color:#c6262e" offset="1"/>
  </radialGradient>
  <linearGradient id="linearGradient2640" y2="43" gradientUnits="userSpaceOnUse" x2="24" gradientTransform="matrix(.35135 0 0 .35135 -.43243 -.43243)" y1="5" x1="24">
   <stop id="stop3310-1-4" style="stop-color:#fff" offset="0"/>
   <stop id="stop3312-5-3" style="stop-color:#fff;stop-opacity:0" offset="1"/>
  </linearGradient>
 </defs>
 <g id="layer1">
  <rect id="rect5505" style="stroke-linejoin:round;stroke:url(#linearGradient2650);stroke-linecap:round;fill:url(#linearGradient2648)" rx=".88889" ry=".88889" height="13" width="15" y="2.5" x=".5"/>
  <path id="rect2424" style="stroke:url(#linearGradient2645);fill:url(#radialGradient2643)" d="m1.3534 0.5c-0.47567 0-0.8534 0.39162-0.8534 0.8847v3.1153h15v-3.1153c0-0.49308-0.378-0.8847-0.853-0.8847h-13.294 0.0004z"/>
  <rect id="rect6741" style="opacity:.4;stroke-linejoin:round;stroke:url(#linearGradient2640);stroke-linecap:round;fill:none" height="13" width="13" y="1.5" x="1.5"/>
  <path id="text3437" style="opacity:.6" d="m4.6715 11.789h2.5659v1.095h-4.2374v-1.095c0.7523-0.664 1.5183-1.314 2.2617-1.9872 0.4062-0.3551 0.6052-1.0311 0.2129-1.4681-0.4499-0.4751-1.1846-0.3243-1.7234-0.1008-0.2319 0.0206-0.6627 0.4588-0.7356 0.2881v-1.1762c0.9902-0.3074 2.094-0.5053 3.1014-0.162 0.6341 0.2134 1.099 0.83 1.0808 1.5 0.0432 0.6727-0.4048 1.233-0.8796 1.6602-0.5371 0.495-1.0981 0.964-1.6467 1.446zm6.0415-1.489c-0.454-0.042-0.8798 0.32-0.871 0.779-0.0599 0.431 0.191 0.933 0.673 0.967 0.423 0.081 0.952-0.103 1.03-0.573 0.111-0.44-0.033-1.038-0.546-1.141-0.093-0.023-0.19-0.032-0.286-0.032zm-1.0972-0.4912c-0.5548-0.1345-1.0545-0.595-1.0659-1.1871-0.0773-0.611 0.3041-1.2256 0.897-1.4194 0.7311-0.2573 1.5471-0.2535 2.2961-0.0767 0.604 0.134 1.136 0.6451 1.128 1.2853 0.06 0.56-0.292 1.112-0.823 1.3079-0.206 0.0679-0.313 0.1013-0.037 0.1581 0.592 0.1851 1.023 0.7631 0.987 1.3821 0.029 0.635-0.33 1.282-0.945 1.511-0.738 0.287-1.571 0.281-2.3376 0.117-0.6279-0.131-1.1957-0.618-1.2709-1.272-0.1176-0.596 0.0801-1.292 0.65-1.593 0.1622-0.0952 0.3397-0.1635 0.5213-0.2132zm0.3515-1.1566c-0.062 0.5286 0.5247 0.837 0.9867 0.6895 0.663-0.1251 0.665-1.2507 0-1.3751-0.473-0.133-1.0369 0.14-0.9867 0.6856z"/>
 </g>
</svg>
